!!!COM:	la Rue, Pierre de
!!!CDT:	~1452///-1518/11/20
!!!OTL:	Pourquoy tant
!!!AGN:	Song; Chanson
!!!SCT:	Rue3019
!!!SCA:	Rue3019
!!!voices:	4
**kern	**kern	**kern	**kern
*staff4	*staff3	*staff2	*staff1
*Ivox	*Ivox	*Ivox	*Ivox
*I"Bassus	*I"Tenor	*I"Contra	*I"Discantus
*I'B	*I'T	*I'C	*I'D
*clefF4	*clefGv2	*clefGv2	*clefG2
*k[]	*k[]	*k[]	*k[]
*M2/1	*M2/1	*M2/1	*M2/1
*met(C|)	*met(C|)	*met(C|)	*met(C|)
=1-	=1-	=1-	=1-
0r	0r	0A	1.a
.	.	.	4g/
.	.	.	4a/
=2	=2	=2	=2
1r	1r	1.d	2b-i\
.	.	.	1a
[1AA	[1A	.	.
.	.	2B\	4g/
.	.	.	4f/
=3	=3	=3	=3
1AA]	2A/]	1c	1e
.	4G/	.	.
.	4A/	.	.
[1D	2B-i\	1d	1d
.	[2A/	.	.
=4	=4	=4	=4
2D\]	2A/]	1r	1r
2BB/	4G/	.	.
.	4F/	.	.
1C	1E	[1A	2.e/
.	.	.	4c/
=5	=5	=5	=5
0D	1D	1A]	2.f/
.	.	.	4g/
.	2r	1F	2a/
.	2D/	.	2b\
=6	=6	=6	=6
1r	1E	1G	1cc
1AA	1F	1A	1cc
=7	=7	=7	=7
1E	4G/	2.B\	1b
.	4A/	.	.
.	4B\	.	.
.	8A/L	4E/	.
.	8B/J	.	.
1E	2c\	1E	2r
.	2B\	.	2b\
=8	=8	=8	=8
0E	2r	2r	2cc\
.	2B\	1e	2b\
.	2c\	.	4g/
.	.	.	4a/
.	2B\	2e\	4b\
.	.	.	8a/L
.	.	.	8b/J
=9	=9	=9	=9
0E	2.G/	2e\	2cc\
.	.	2.e\	1b
.	4A/	.	.
.	2B\	.	.
.	.	4d\	.
.	[2c\	2e\	4a/
.	.	.	4g/
=10	=10	=10	=10
1F	4c\]	1A	2a/
.	4B\	.	.
.	1A	.	2dd\
1E	.	1e	2cc\
.	2G/	.	[2b\
=11	=11	=11	=11
1F	1A	1d	2b\]
.	.	.	1a
1E	1B	1e	.
.	.	.	2g#i/
=12	=12	=12	=12
0AA	1A	2r	0a
.	.	2E/	.
.	2r	2.E/	.
.	2A/	.	.
.	.	4F/	.
=13	=13	=13	=13
2r	1B	1G	0r
2E\	.	.	.
1E	1c	2r	.
.	.	[2g\	.
=14	=14	=14	=14
1E	1B	4g\]	0r
.	.	4f\	.
.	.	1e	.
1F	2r	.	.
.	2d\	2d\	.
=15	=15	=15	=15
1E	4c\	1.e	0r
.	4B\	.	.
.	2c\	.	.
2r	4B\	.	.
.	4A/	.	.
2E\	[2B\	4d\	.
.	.	4c\	.
=16	=16	=16	=16
1F	2B\]	1d	2r
.	1A	.	2a/
1E	.	2e\	1b
.	2G#i/	2E/	.
=17	=17	=17	=17
1AA	0A	1F	0cc
2r	.	1E	.
2AA/	.	.	.
=18	=18	=18	=18
0E	0r	2r	1b
.	.	2.e\	.
.	.	.	1g
.	.	4d\	.
.	.	2e\	.
=19	=19	=19	=19
1F	0r	2c\	1a
.	.	2.d\	.
2F\	.	.	1a
.	.	4c\	.
2F\	.	2d\	.
=20	=20	=20	=20
1E	2r	2B\	2r
.	2.e\	2.c\	2g/
2r	.	.	1g
.	4d\	4B\	.
2E\	2e\	2c\	.
=21	=21	=21	=21
1F	2c\	0A	0a
.	2.d\	.	.
1F	.	.	.
.	4c\	.	.
.	2d\	.	.
=22	=22	=22	=22
0E	2B\	1.e	2.g/
.	2.c\	.	.
.	.	.	8f/L
.	.	.	8g/J
.	.	.	2a/
.	4B\	.	.
.	2c\	4d\	[2cc\
.	.	4c\	.
=23	=23	=23	=23
1F	1A	1d	4cc\]
.	.	.	4b\
.	.	.	1a
1E	1B	1e	.
.	.	.	2g#i/
=24	=24	=24	=24
0AA	0A	2r	2a/
.	.	2.c\	2e/
.	.	.	2r
.	.	4d\	.
.	.	4e\	[2cc\
.	.	4f\	.
=25	=25	=25	=25
[0E	1r	2e\	4cc\]
.	.	.	4a/
.	.	2E/	2cc\
.	2r	1e	2b\
.	[2G/	.	2g/
=26	=26	=26	=26
0E_	4G/]	2r	2r
.	4A/	.	.
.	4B\	2.E/	2.g/
.	4c\	.	.
.	2B\	.	.
.	.	4F/	4a/
.	2E/	4G/	4b\
.	.	4A/	4cc\
=27	=27	=27	=27
0E_	2r	2G/	2b\
.	2.E/	2C/	2e/
.	.	2.c\	2r
.	4F/	.	.
.	4G/	.	[2e/
.	4A/	4d\	.
=28	=28	=28	=28
0E_	2G/	[0e	4e/]
.	.	.	4f/
.	2C/	.	4g/
.	.	.	4a/
.	1c	.	2g/
.	.	.	2c/
=29	=29	=29	=29
0E;]	0B;	0e;]	0g;
=30	=30	=30	=30
0E	0r	2.e\	2.g/
.	.	4d\	4f/
.	.	4c\	4e/
.	.	4B\	4d/
.	.	[2c\	[2e/
=31	=31	=31	=31
0E	0r	2c\]	2e/]
.	.	4B\	4d/
.	.	4A/	4c/
.	.	1G	1B
=32	=32	=32	=32
[0AA	2.A/	0r	2.cc\
.	4G/	.	4b\
.	4F/	.	4a/
.	4E/	.	4g/
.	[2F/	.	[2a/
=33	=33	=33	=33
0AA]	2F/]	0r	2a/]
.	4E/	.	4g/
.	4D/	.	4f/
.	1C#i	.	1e
=34	=34	=34	=34
0r	[0D	2.f\	2.d/
.	.	4e\	4e/
.	.	4d\	4f/
.	.	4c\	4g/
.	.	[2d\	[2a/
=35	=35	=35	=35
0r	0D]	2d\]	2a/]
.	.	4c\	1g
.	.	4B\	.
.	.	1A	.
.	.	.	2f#i/
=36	=36	=36	=36
1E	2r	1G	1g
.	2B\	.	.
2E\	2.c\	2r	1r
[2A\	.	[2e\	.
.	4d\	.	.
=37	=37	=37	=37
2A\]	1B	4e\]	2r
.	.	4f\	.
2G\	.	1g	2b\
1A	1r	.	2.cc\
.	.	2f#i\	.
.	.	.	4dd\
=38	=38	=38	=38
0G	2r	1.g	1b
.	2.d\	.	.
.	.	.	2r
.	4B\	.	.
.	[2B\	4f\	[2dd\
.	.	4e\	.
=39	=39	=39	=39
1r	4B\]	1d	4dd\]
.	4A/	.	4b\
.	4G/	.	2.b\
.	4F/	.	.
2r	1E	1e	.
.	.	.	4a/
[2G\	.	.	4g/
.	.	.	4f/
=40	=40	=40	=40
4G\]	0r	2r	0e
4E\	.	.	.
2.E\	.	2.g\	.
4D\	.	4f\	.
4C/	.	4e\	.
4BB/	.	4d\	.
=41	=41	=41	=41
1AA	1A	0c	1r
1C	1A	.	2r
.	.	.	2e/
=42	=42	=42	=42
2D\	1A	1r	2f/
4C/	.	.	4e/
4BB/	.	.	4d/
4AA/	1A	2r	4c/
4BB/	.	.	4d/
4C/	.	[2E/	4e/
4D\	.	.	4f/
=43	=43	=43	=43
2C/	1A	2E/]	2e/
2D\	.	2F/	2A/
1BB	1G#i	1D	2r
.	.	.	2b\
=44	=44	=44	=44
1AA	2A/	2E/	2cc\
.	4G/	1e	4b\
.	4F/	.	4a/
1r	4E/	.	4g/
.	4F/	.	4a/
.	4G/	4d\	4b\
.	4A/	4c\	4cc\
=45	=45	=45	=45
0r	2G/	4d\	2b\
.	.	4B\	.
.	2A/	1e	2e/
.	1F	.	1a
.	.	2d\	.
=46	=46	=46	=46
1r	1E	1.e	1g
1E	1r	.	2r
.	.	4d\	[2g/
.	.	4c\	.
=47	=47	=47	=47
2.E\	1e	1G	4g/]
.	.	.	4a/
.	.	.	1b
4F\	.	.	.
2G\	1e	2r	.
[2A\	.	2e\	[2cc\
=48	=48	=48	=48
2A\]	1d	2f\	2cc\]
2G\	.	2g\	2b\
1A	1c	2e\	2cc\
.	.	[2f\	[2a/
=49	=49	=49	=49
1F	1A	2f\]	2a/]
.	.	4e\	2.dd\
.	.	4d\	.
1D	2r	1f	.
.	.	.	4cc\
.	[2d\	.	4b\
.	.	.	4a/
=50	=50	=50	=50
2r	2d\]	2r	2g/
1A	4c\	2e\	2a/
.	4B\	.	.
.	2A/	2f\	2cc\
2G\	2B\	2g\	[2b\
=51	=51	=51	=51
1A	2.c\	0e	2b\]
.	.	.	1a
.	4d\	.	.
1E	1B	.	.
.	.	.	2g#i/
=52	=52	=52	=52
[0AAl	[0Al	2r	[0al
.	.	2E/	.
.	.	1F	.
=53	=53	=53	=53
0AA]	0A]	0El	0a]
==	==	==	==
*-	*-	*-	*-
!!!RDF**kern: l=long note in original notation
!!!RDF**kern: i=editorial accidental
!!!ENC:	Chris Gage 06-17-2013
!!!END:	2013/08/08/
!!!EED:	Jesse Rodin
!!!EEV:	2013/08/10/
!!!ONB:	Translated from MusicXML and edited on 2013/08/10/ by Craig Sapp
!!muse2ps: C^@{COM}^i2I150v85,85,85,150Q16
